X:1
L:1/8
M:none
K:Bb
V:1 treble
 V:1  z | z | z | z | z | z4 z D G G | G/ G/^F/=E/ F2 z D B B | B/ B/A/G/ A2 z D d d | 
  d/ d/c/ B/ c2- c | 
